X:1
T:Whistle While You Work
T:Whistle While You Work
T:from Disney's SNOW WHITE AND THE SEVEN DWARFS
T:Frank Churchill
T:Larry Morey
C:Frank Churchill
Z:All Rights Reserved
L:1/4
M:4/4
K:C
V:1 treble 
%%MIDI program 0
V:1
 G |"C" G F E F | G3 G/>A/ | G F E F | G3"C#dim7" G |"Dm7" G F"G7" E D |"Dm7" G F"G7" E D | %7
w: Just|Whis- tle While You|Work. (whistle) _|_ _ _ _|* Put|on that grin and|start right in, To|
"Dm7" G F"G7" E D |"Dm7" G3"G7" G |"C" G F E F | G3 G/>A/ | G F E F | G3"C#dim7" G | %13
w: whis- tle loud and|long. Just|hum a mer- ry|tune. (hum) _|_ _ _ _|* Just|
"Dm7" G F"G7" E D |"Dm7" G F"G7" E D |"Dm7" G F"G7" E D |"C" C3 C |"F" c _B A B | c3 C | c _B A B | %20
w: do your best, Then|take a rest, And|sing your- self a|song. When|there's too much to|do, Don't|let it both- er|
 c3 C |"Fm7" c _B _A B | c c _B _A |"C" G A"C#dim7" G A |"G7" G A G A |"C" G F E F | G3 G/>A/ | %27
w: you, For-|get your trou- ble,|Try to be just|like the cheer- ful|chick- a- dee, And|Whis- tle While You|Work. (whistle) _|
 G F E F | G3"C#dim7" G |"Dm7" G F"G7" E D |"Dm7" G F"G7" E D |"Dm7" G F"G7" E D |"C" C3 z |] %33
w: _ _ _ _|* Come|on, get smart, Tune|up and start, To|Whis- tle While You|Work.|

